X:1
T:Kilpolskan
R:Polska
O:Torsker Gstrikland
S:efter Spel-Stina
W:Kiln i ndan p na lt en skojare f na han kan bttre kl na n som jag
M:3/4
L:1/8
K:Dm
a3/f/ dd ^cc|dd ee/g/ fe|a3/f/ dd ^cc|AB/^c/ dAFD|
a3/f/ dd ^cc|dd ee/g/ fe|a3/f/ dd ^cc|AB/^c/d2D2:|:
f3/g/ aa/f/ aa/f/|g/^f/g/a/ _b2g2|e3/f/ gg/e/ gg/e/|f/e/f/g/a2f2|
a3/f/ dd ^cc|dd ee/g/ fe|d/^c/d/e/ f/e/f/g/ a3/f/|e/f/e/^c/d3z:|
